;FLAVOR:Marlin
;TIME:3425
;Filament used: 1.82727m
;Layer height: 0.2
;MINX:196.5
;MINY:198.114
;MINZ:0.2
;MAXX:303.5
;MAXY:244.486
;MAXZ:3
;Generated with Cura_SteamEngine 4.12.1
M140 S50
M105
M190 S50
M104 S200
M105
M109 S200
M82 ;absolute extrusion mode
M201 X500.00 Y500.00 Z100.00 E5000.00 ;Setup machine max acceleration
M203 X500.00 Y500.00 Z10.00 E50.00 ;Setup machine max feedrate
M204 P500.00 R1000.00 T500.00 ;Setup Print/Retract/Travel acceleration
M205 X8.00 Y8.00 Z0.40 E5.00 ;Setup Jerk
M220 S100 ;Reset Feedrate
M221 S100 ;Reset Flowrate

G28 ;Home

G92 E0 ;Reset Extruder
G1 Z2.0 F3000 ;Move Z Axis up
G1 X10.1 Y20 Z0.28 F5000.0 ;Move to start position
G1 X10.1 Y200.0 Z0.28 F1500.0 E15 ;Draw the first line
G1 X10.4 Y200.0 Z0.28 F5000.0 ;Move to side a little
G1 X10.4 Y20 Z0.28 F1500.0 E30 ;Draw the second line
G92 E0 ;Reset Extruder
G1 Z2.0 F3000 ;Move Z Axis up

G92 E0
G92 E0
G1 F2700 E-5
;LAYER_COUNT:15
;LAYER:0
M107
G0 F6000 X200.982 Y201.938 Z0.2
;TYPE:SKIRT
G1 F2700 E0
G1 F1200 X202.019 Y201.08 E0.04477
G1 X202.477 Y200.746 E0.06362
G1 X202.746 Y200.556 E0.07457
G1 X202.955 Y200.413 E0.083
G1 X203.982 Y199.79 E0.12295
G1 X204.287 Y199.627 E0.13445
G1 X204.592 Y199.47 E0.14586
G1 X204.792 Y199.371 E0.15328
G1 X205.905 Y198.894 E0.19356
G1 X206.13 Y198.812 E0.20152
G1 X207.025 Y198.529 E0.23274
G1 X207.939 Y198.323 E0.2639
G1 X208.555 Y198.229 E0.28463
G1 X208.677 Y198.214 E0.28872
G1 X209.838 Y198.133 E0.32743
G1 X210.929 Y198.115 E0.36372
G1 X289.162 Y198.114 E2.96576
G1 X290.035 Y198.124 E2.9948
G1 X290.524 Y198.141 E3.01107
G1 X290.806 Y198.157 E3.02047
G1 X291.739 Y198.25 E3.05165
G1 X291.851 Y198.266 E3.05541
G1 X292.773 Y198.438 E3.08661
G1 X293.677 Y198.688 E3.1178
G1 X294.709 Y199.079 E3.15451
G1 X294.919 Y199.171 E3.16214
G1 X295.351 Y199.372 E3.17798
G1 X295.512 Y199.451 E3.18395
G1 X295.931 Y199.668 E3.19964
G1 X296.219 Y199.825 E3.21055
G1 X297.056 Y200.33 E3.24306
G1 X297.341 Y200.52 E3.25446
G1 X297.569 Y200.677 E3.26366
G1 X297.984 Y200.969 E3.28054
G1 X298.727 Y201.541 E3.31173
G1 X299.419 Y202.174 E3.34292
G1 X300.055 Y202.864 E3.37413
G1 X300.645 Y203.628 E3.40624
G1 X300.848 Y203.916 E3.41796
G1 X301.006 Y204.146 E3.42724
G1 X301.271 Y204.543 E3.44312
G1 X301.763 Y205.353 E3.47464
G1 X301.952 Y205.697 E3.48769
G1 X302.35 Y206.498 E3.51744
G1 X302.496 Y206.824 E3.52932
G1 X302.843 Y207.695 E3.5605
G1 X303.114 Y208.593 E3.5917
G1 X303.337 Y209.703 E3.62936
G1 X303.359 Y209.851 E3.63434
G1 X303.458 Y210.783 E3.66551
G1 X303.477 Y211.279 E3.68202
G1 X303.5 Y212.693 E3.72905
G1 X303.499 Y230.234 E4.31247
G1 X303.487 Y231.017 E4.33852
G1 X303.444 Y231.832 E4.36566
G1 X303.421 Y232.088 E4.37421
G1 X303.297 Y233.018 E4.40541
G1 X303.095 Y233.934 E4.43661
G1 X302.821 Y234.813 E4.46724
G1 X302.773 Y234.947 E4.47197
G1 X302.348 Y235.969 E4.50878
G1 X302.237 Y236.202 E4.51737
G1 X302.091 Y236.496 E4.52829
G1 X301.872 Y236.914 E4.54398
G1 X301.766 Y237.107 E4.5513
G1 X301.157 Y238.09 E4.58977
G1 X300.888 Y238.475 E4.60539
G1 X300.598 Y238.88 E4.62195
G1 X300.02 Y239.619 E4.65316
G1 X299.409 Y240.277 E4.68302
G1 X299.241 Y240.444 E4.6909
G1 X298.548 Y241.077 E4.72212
G1 X298.046 Y241.473 E4.74339
G1 X297.762 Y241.684 E4.75515
G1 X297.46 Y241.901 E4.76752
G1 X297.087 Y242.159 E4.78261
G1 X296.05 Y242.794 E4.82305
G1 X295.77 Y242.945 E4.83363
G1 X295.443 Y243.114 E4.84587
G1 X295.286 Y243.192 E4.8517
G1 X294.934 Y243.36 E4.86468
G1 X294.709 Y243.462 E4.87289
G1 X293.839 Y243.812 E4.90408
G1 X292.942 Y244.087 E4.93529
G1 X292.025 Y244.285 E4.96649
G1 X291.484 Y244.364 E4.98468
G1 X291.285 Y244.388 E4.99134
G1 X290.654 Y244.446 E5.01242
G1 X290.526 Y244.454 E5.01668
G1 X290.221 Y244.468 E5.02684
G1 X289.673 Y244.484 E5.04507
G1 X289.436 Y244.486 E5.05296
G1 X210.733 Y244.485 E7.67063
G1 X209.965 Y244.474 E7.69618
G1 X209.694 Y244.467 E7.70519
G1 X209.412 Y244.456 E7.71458
G1 X208.478 Y244.379 E7.74575
G1 X207.553 Y244.223 E7.77695
G1 X206.696 Y244.005 E7.80636
G1 X206.391 Y243.914 E7.81695
G1 X205.505 Y243.608 E7.84812
G1 X204.72 Y243.263 E7.87664
G1 X204.529 Y243.17 E7.88371
G1 X204.043 Y242.918 E7.90192
G1 X203.734 Y242.748 E7.91365
G1 X202.95 Y242.273 E7.94413
G1 X202.673 Y242.089 E7.9552
G1 X202.394 Y241.898 E7.96644
G1 X201.981 Y241.605 E7.98328
G1 X201.24 Y241.03 E8.01448
G1 X200.551 Y240.394 E8.04567
G1 X199.918 Y239.702 E8.07686
G1 X199.378 Y239.003 E8.10624
G1 X199.172 Y238.713 E8.11807
G1 X198.977 Y238.429 E8.12953
G1 X198.712 Y238.03 E8.14546
G1 X198.242 Y237.255 E8.1756
G1 X198.07 Y236.943 E8.18745
G1 X197.804 Y236.429 E8.2067
G1 X197.757 Y236.332 E8.21029
G1 X197.593 Y235.977 E8.22329
G1 X197.48 Y235.721 E8.2326
G1 X197.138 Y234.848 E8.26379
G1 X196.872 Y233.948 E8.295
G1 X196.666 Y232.922 E8.32981
G1 X196.645 Y232.783 E8.33448
G1 X196.545 Y231.851 E8.36566
G1 X196.524 Y231.322 E8.38327
G1 X196.5 Y229.812 E8.4335
G1 X196.501 Y212.328 E9.01502
G1 X196.511 Y211.64 E9.0379
G1 X196.541 Y210.974 E9.06008
G1 X196.559 Y210.735 E9.06805
G1 X196.669 Y209.804 E9.09923
G1 X196.941 Y208.574 E9.14113
G1 X196.998 Y208.372 E9.14811
G1 X197.291 Y207.481 E9.1793
G1 X197.637 Y206.665 E9.20878
G1 X197.746 Y206.434 E9.21728
G1 X197.942 Y206.04 E9.23191
G1 X198.152 Y205.643 E9.24685
G1 X198.251 Y205.464 E9.25365
G1 X198.885 Y204.452 E9.29337
G1 X199.3 Y203.863 E9.31734
G1 X200.118 Y202.838 E9.36096
G1 X200.326 Y202.607 E9.37129
G1 X200.982 Y201.938 E9.40246
G0 F6000 X201.268 Y202.218
G1 F1200 X202.254 Y201.403 E9.44501
G1 X202.712 Y201.069 E9.46386
G1 X202.972 Y200.886 E9.47443
G1 X203.181 Y200.743 E9.48286
G1 X204.171 Y200.142 E9.52138
G1 X204.476 Y199.979 E9.53288
G1 X204.77 Y199.828 E9.54387
G1 X204.97 Y199.729 E9.55129
G1 X206.042 Y199.27 E9.59008
G1 X206.267 Y199.188 E9.59804
G1 X207.145 Y198.91 E9.62868
G1 X208.044 Y198.71 E9.65931
G1 X208.603 Y198.626 E9.67811
G1 X208.725 Y198.611 E9.6822
G1 X209.844 Y198.533 E9.71951
G1 X210.935 Y198.515 E9.7558
G1 X289.162 Y198.514 E12.35764
G1 X290.03 Y198.524 E12.38651
G1 X290.501 Y198.54 E12.40218
G1 X290.783 Y198.556 E12.41158
G1 X291.682 Y198.646 E12.44163
G1 X291.794 Y198.662 E12.44539
G1 X292.699 Y198.831 E12.47601
G1 X293.586 Y199.079 E12.50665
G1 X294.549 Y199.446 E12.54092
G1 X294.759 Y199.538 E12.54855
G1 X295.174 Y199.731 E12.56377
G1 X295.335 Y199.81 E12.56974
G1 X295.74 Y200.019 E12.58489
G1 X296.028 Y200.176 E12.5958
G1 X296.834 Y200.663 E12.62712
G1 X297.119 Y200.853 E12.63852
G1 X297.339 Y201.004 E12.64739
G1 X297.754 Y201.296 E12.66427
G1 X298.483 Y201.858 E12.69488
G1 X299.161 Y202.481 E12.72551
G1 X299.782 Y203.161 E12.75614
G1 X300.318 Y203.858 E12.78538
G1 X300.521 Y204.146 E12.7971
G1 X300.673 Y204.368 E12.80605
G1 X300.938 Y204.765 E12.82193
G1 X301.412 Y205.546 E12.85231
G1 X301.601 Y205.89 E12.86537
G1 X301.985 Y206.661 E12.89402
G1 X302.131 Y206.987 E12.9059
G1 X302.471 Y207.843 E12.93653
G1 X302.735 Y208.725 E12.96715
G1 X302.942 Y209.761 E13.00229
G1 X302.964 Y209.909 E13.00727
G1 X303.059 Y210.825 E13.0379
G1 X303.077 Y211.286 E13.05324
G1 X303.1 Y212.693 E13.10004
G1 X303.099 Y230.227 E13.68323
G1 X303.087 Y231.01 E13.70927
G1 X303.045 Y231.797 E13.73549
G1 X303.022 Y232.053 E13.74403
G1 X302.9 Y232.965 E13.77464
G1 X302.7 Y233.864 E13.80527
G1 X302.444 Y234.679 E13.83368
G1 X302.396 Y234.813 E13.83842
G1 X301.987 Y235.797 E13.87386
G1 X301.876 Y236.03 E13.88244
G1 X301.659 Y236.461 E13.89849
G1 X301.521 Y236.722 E13.90831
G1 X301.415 Y236.915 E13.91564
G1 X300.828 Y237.861 E13.95267
G1 X300.562 Y238.242 E13.96812
G1 X300.272 Y238.647 E13.98469
G1 X299.704 Y239.372 E14.01532
G1 X299.127 Y239.994 E14.04354
G1 X298.959 Y240.161 E14.05142
G1 X298.278 Y240.781 E14.08205
G1 X297.808 Y241.152 E14.10197
G1 X297.524 Y241.363 E14.11373
G1 X297.232 Y241.572 E14.12568
G1 X296.859 Y241.83 E14.14076
G1 X295.86 Y242.442 E14.17973
G1 X295.58 Y242.593 E14.19031
G1 X295.265 Y242.756 E14.2021
G1 X295.108 Y242.834 E14.20793
G1 X294.769 Y242.995 E14.22042
G1 X294.544 Y243.097 E14.22863
G1 X293.689 Y243.441 E14.25929
G1 X292.809 Y243.709 E14.28988
G1 X291.908 Y243.899 E14.32051
G1 X291.436 Y243.967 E14.33637
G1 X291.237 Y243.991 E14.34304
G1 X290.629 Y244.046 E14.36334
G1 X290.207 Y244.069 E14.3774
G1 X289.947 Y244.078 E14.38605
G1 X289.669 Y244.084 E14.3953
G1 X289.432 Y244.086 E14.40318
G1 X210.739 Y244.085 E17.02052
G1 X209.971 Y244.074 E17.04607
G1 X209.71 Y244.067 E17.05475
G1 X209.428 Y244.056 E17.06414
G1 X208.51 Y243.98 E17.09478
G1 X207.603 Y243.825 E17.12538
G1 X206.81 Y243.622 E17.15261
G1 X206.505 Y243.531 E17.16319
G1 X205.635 Y243.229 E17.19382
G1 X204.896 Y242.903 E17.22069
G1 X204.705 Y242.81 E17.22775
G1 X204.236 Y242.567 E17.24532
G1 X203.927 Y242.397 E17.25705
G1 X203.171 Y241.94 E17.28643
G1 X202.894 Y241.756 E17.29749
G1 X202.626 Y241.571 E17.30832
G1 X202.213 Y241.278 E17.32517
G1 X201.486 Y240.714 E17.35577
G1 X200.81 Y240.088 E17.38641
G1 X200.192 Y239.406 E17.41702
G1 X199.704 Y238.772 E17.44364
G1 X199.498 Y238.482 E17.45547
G1 X199.31 Y238.207 E17.46655
G1 X199.045 Y237.808 E17.48248
G1 X198.592 Y237.061 E17.51153
G1 X198.42 Y236.749 E17.52338
G1 X198.164 Y236.254 E17.54192
G1 X198.117 Y236.157 E17.5455
G1 X197.959 Y235.815 E17.55803
G1 X197.846 Y235.559 E17.56734
G1 X197.511 Y234.702 E17.59795
G1 X197.252 Y233.818 E17.62858
G1 X197.062 Y232.862 E17.661
G1 X197.041 Y232.723 E17.66568
G1 X196.943 Y231.808 E17.69628
G1 X196.923 Y231.316 E17.71266
G1 X196.901 Y229.988 E17.75684
G1 X196.9 Y212.488 E18.33889
G1 X196.911 Y211.646 E18.3669
G1 X196.94 Y211.004 E18.38827
G1 X196.958 Y210.765 E18.39624
G1 X197.067 Y209.851 E18.42686
G1 X197.326 Y208.682 E18.46668
G1 X197.383 Y208.48 E18.47366
G1 X197.672 Y207.606 E18.50428
G1 X197.999 Y206.836 E18.53211
G1 X198.108 Y206.605 E18.5406
G1 X198.296 Y206.225 E18.5547
G1 X198.502 Y205.837 E18.56931
G1 X198.601 Y205.658 E18.57612
G1 X199.212 Y204.683 E18.61439
G1 X199.627 Y204.094 E18.63835
G1 X200.415 Y203.106 E18.68038
G1 X200.623 Y202.875 E18.69072
G1 X201.268 Y202.218 E18.72134
G0 F6000 X201.553 Y202.499
G1 F1200 X202.49 Y201.727 E18.76172
G1 X202.948 Y201.393 E18.78058
G1 X203.198 Y201.216 E18.79077
G1 X203.407 Y201.073 E18.79919
G1 X204.359 Y200.495 E18.83623
G1 X204.664 Y200.332 E18.84773
G1 X204.947 Y200.187 E18.85831
G1 X205.147 Y200.088 E18.86573
G1 X206.179 Y199.646 E18.90307
G1 X206.404 Y199.564 E18.91104
G1 X207.266 Y199.292 E18.9411
G1 X208.148 Y199.098 E18.97114
G1 X208.652 Y199.023 E18.98809
G1 X208.774 Y199.008 E18.99217
G1 X209.851 Y198.933 E19.02808
G1 X210.942 Y198.915 E19.06437
G1 X289.162 Y198.914 E21.66598
G1 X290.025 Y198.924 E21.69469
G1 X290.479 Y198.939 E21.7098
G1 X290.761 Y198.955 E21.71919
G1 X291.625 Y199.042 E21.74807
G1 X291.737 Y199.058 E21.75183
G1 X292.625 Y199.225 E21.78189
G1 X293.494 Y199.47 E21.81192
G1 X294.388 Y199.812 E21.84375
G1 X294.598 Y199.904 E21.85138
G1 X294.998 Y200.09 E21.86605
G1 X295.159 Y200.169 E21.87202
G1 X295.548 Y200.37 E21.88658
G1 X295.836 Y200.527 E21.89749
G1 X296.612 Y200.996 E21.92765
G1 X296.897 Y201.186 E21.93904
G1 X297.109 Y201.331 E21.94758
G1 X297.524 Y201.623 E21.96446
G1 X298.238 Y202.175 E21.99448
G1 X298.902 Y202.788 E22.02453
G1 X299.508 Y203.457 E22.05456
G1 X299.991 Y204.089 E22.08101
G1 X300.194 Y204.377 E22.09273
G1 X300.341 Y204.59 E22.10134
G1 X300.606 Y204.987 E22.11721
G1 X301.062 Y205.738 E22.14644
G1 X301.251 Y206.082 E22.15949
G1 X301.62 Y206.825 E22.18708
G1 X301.766 Y207.151 E22.19896
G1 X302.098 Y207.991 E22.22901
G1 X302.355 Y208.857 E22.25905
G1 X302.546 Y209.82 E22.2917
G1 X302.568 Y209.968 E22.29668
G1 X302.678 Y211.293 E22.3409
G1 X302.699 Y212.518 E22.38165
G1 X302.7 Y230.065 E22.96527
G1 X302.687 Y231.004 E22.9965
G1 X302.647 Y231.761 E23.02171
G1 X302.624 Y232.017 E23.03026
G1 X302.504 Y232.912 E23.0603
G1 X302.304 Y233.793 E23.09035
G1 X302.068 Y234.544 E23.11653
G1 X302.02 Y234.678 E23.12126
G1 X301.625 Y235.625 E23.15539
G1 X301.514 Y235.858 E23.16397
G1 X301.38 Y236.13 E23.17406
G1 X301.304 Y236.278 E23.17959
G1 X301.17 Y236.529 E23.18906
G1 X301.064 Y236.722 E23.19638
G1 X300.5 Y237.633 E23.23202
G1 X300.237 Y238.009 E23.24728
G1 X299.947 Y238.414 E23.26385
G1 X299.389 Y239.125 E23.29391
G1 X298.845 Y239.71 E23.32048
G1 X298.677 Y239.877 E23.32835
G1 X298.009 Y240.485 E23.3584
G1 X297.569 Y240.831 E23.37701
G1 X297.285 Y241.042 E23.38878
G1 X297.004 Y241.243 E23.40027
G1 X296.631 Y241.501 E23.41536
G1 X295.671 Y242.09 E23.45282
G1 X295.391 Y242.241 E23.4634
G1 X295.087 Y242.398 E23.47478
G1 X294.93 Y242.476 E23.48061
G1 X294.603 Y242.631 E23.49265
G1 X294.378 Y242.733 E23.50086
G1 X293.54 Y243.069 E23.53089
G1 X292.676 Y243.33 E23.56091
G1 X291.388 Y243.57 E23.60449
G1 X291.189 Y243.594 E23.61115
G1 X290.604 Y243.647 E23.63069
G1 X290.193 Y243.669 E23.64438
G1 X289.933 Y243.678 E23.65303
G1 X289.666 Y243.684 E23.66192
G1 X289.429 Y243.686 E23.6698
G1 X210.745 Y243.685 E26.28684
G1 X209.977 Y243.674 E26.31239
G1 X209.725 Y243.667 E26.32077
G1 X209.443 Y243.656 E26.33016
G1 X208.543 Y243.581 E26.36019
G1 X207.654 Y243.427 E26.3902
G1 X206.925 Y243.238 E26.41525
G1 X206.62 Y243.147 E26.42584
G1 X205.767 Y242.851 E26.45587
G1 X205.071 Y242.544 E26.48117
G1 X204.88 Y242.451 E26.48824
G1 X204.428 Y242.217 E26.50516
G1 X204.119 Y242.047 E26.51689
G1 X203.392 Y241.606 E26.54517
G1 X203.115 Y241.422 E26.55624
G1 X202.857 Y241.245 E26.56664
G1 X202.444 Y240.952 E26.58348
G1 X201.731 Y240.397 E26.61354
G1 X201.071 Y239.782 E26.64354
G1 X200.467 Y239.11 E26.67359
G1 X200.03 Y238.54 E26.69748
G1 X199.824 Y238.25 E26.70931
G1 X199.643 Y237.986 E26.71996
G1 X199.378 Y237.587 E26.73589
G1 X198.942 Y236.868 E26.76386
G1 X198.77 Y236.556 E26.77571
G1 X198.524 Y236.08 E26.79353
G1 X198.477 Y235.983 E26.79711
G1 X198.325 Y235.654 E26.80917
G1 X198.212 Y235.398 E26.81847
G1 X197.884 Y234.556 E26.84853
G1 X197.632 Y233.689 E26.87856
G1 X197.457 Y232.803 E26.9086
G1 X197.436 Y232.664 E26.91327
G1 X197.341 Y231.766 E26.94331
G1 X197.323 Y231.309 E26.95852
G1 X197.301 Y229.981 E27.00269
G1 X197.3 Y212.488 E27.58451
G1 X197.311 Y211.652 E27.61232
G1 X197.339 Y211.034 E27.6329
G1 X197.357 Y210.795 E27.64087
G1 X197.464 Y209.898 E27.67091
G1 X197.711 Y208.791 E27.70864
G1 X197.768 Y208.589 E27.71562
G1 X198.052 Y207.731 E27.74568
G1 X198.36 Y207.006 E27.77188
G1 X198.469 Y206.775 E27.78037
G1 X198.651 Y206.41 E27.79394
G1 X198.852 Y206.03 E27.80824
G1 X198.951 Y205.851 E27.81504
G1 X199.539 Y204.913 E27.85186
G1 X199.954 Y204.324 E27.87583
G1 X200.712 Y203.374 E27.91625
G1 X200.92 Y203.143 E27.92659
G1 X201.553 Y202.499 E27.95662
G1 F2700 E22.95662
;MESH:spotify_code.png
G0 F6000 X232.201 Y217.045
G0 X232.266 Y215.932
G0 X232.366 Y217.123
G0 X235.192 Y218.465
G0 X235.464 Y218.595
G0 X236.975 Y218.3
G0 X237.926 Y217.853
G0 X238.872 Y217.858
G0 X239.545 Y218.356
;TYPE:WALL-INNER
G1 F2700 E27.95662
G1 F1200 X239.545 Y218.269 E27.95952
G1 X239.384 Y218.181 E27.96562
G1 X239.384 Y218.117 E27.96775
G1 X239.044 Y217.919 E27.98083
G1 X239.043 Y217.686 E27.98858
G1 X237.858 Y217.69 E28.028
G1 X237.167 Y218.38 E28.06048
G1 X237.166 Y224.238 E28.25531
G1 X237.596 Y224.633 E28.27473
G1 X237.862 Y224.911 E28.28753
G1 X238.685 Y224.911 E28.3149
G1 X238.854 Y224.745 E28.32278
G1 X238.949 Y224.744 E28.32594
G1 X239.161 Y224.608 E28.33432
G1 X239.418 Y224.352 E28.34639
G1 X239.545 Y224.133 E28.35481
G1 X239.545 Y224.051 E28.35753
G1 X239.711 Y223.884 E28.36536
G1 X239.711 Y218.356 E28.54923
G1 X239.545 Y218.356 E28.55475
G0 F6000 X239.311 Y218.756
;TYPE:WALL-OUTER
G1 F1200 X239.145 Y218.756 E28.56027
G1 X239.145 Y218.506 E28.56858
G1 X238.984 Y218.418 E28.57469
G1 X238.984 Y218.347 E28.57705
G1 X238.826 Y218.255 E28.58313
G1 X238.646 Y218.255 E28.58912
G1 X238.645 Y218.087 E28.5947
G1 X238.024 Y218.089 E28.61536
G1 X237.567 Y218.546 E28.63685
G1 X237.566 Y224.062 E28.82032
G1 X237.873 Y224.344 E28.83418
G1 X238.033 Y224.511 E28.84187
G1 X238.521 Y224.511 E28.85811
G1 X238.689 Y224.346 E28.86594
G1 X238.831 Y224.345 E28.87066
G1 X238.909 Y224.295 E28.87374
G1 X239.098 Y224.106 E28.88263
G1 X239.145 Y224.025 E28.88575
G1 X239.145 Y223.886 E28.89037
G1 X239.311 Y223.719 E28.8982
G1 X239.311 Y218.756 E29.06327
